Numix-GalliumOS/16/status/stock_signature-bad.svg

<?xml version="1.0" encoding="UTF-8" standalone="no"?>
<!-- Created with Inkscape (http://www.inkscape.org/) -->

<svg
   xmlns:dc="http://purl.org/dc/elements/1.1/"
   xmlns:cc="http://creativecommons.org/ns#"
   xmlns:rdf="http://www.w3.org/1999/02/22-rdf-syntax-ns#"
   xmlns:svg="http://www.w3.org/2000/svg"
   xmlns="http://www.w3.org/2000/svg"
   xmlns:sodipodi="http://sodipodi.sourceforge.net/DTD/sodipodi-0.dtd"
   xmlns:inkscape="http://www.inkscape.org/namespaces/inkscape"
   width="16"
   height="16"
   id="svg1307"
   sodipodi:version="0.32"
   inkscape:version="0.91 r"
   version="1.0"
   sodipodi:docname="stock_signature-bad.svg"
   inkscape:export-filename="/home/pinheiro/Documents/pics/new oxygen/svg/pen.png"
   inkscape:export-xdpi="90"
   inkscape:export-ydpi="90"
   inkscape:output_extension="org.inkscape.output.svgz.inkscape">
  <defs
     id="defs1309" />
  <sodipodi:namedview
     id="base"
     pagecolor="#ffffff"
     bordercolor="#666666"
     borderopacity="1.0"
     inkscape:pageopacity="0.0"
     inkscape:pageshadow="2"
     inkscape:zoom="38.468462"
     inkscape:cx="4.0527718"
     inkscape:cy="10.295674"
     inkscape:current-layer="layer1"
     showgrid="true"
     inkscape:document-units="px"
     inkscape:grid-bbox="true"
     guidetolerance="0.1px"
     showguides="true"
     inkscape:guide-bbox="true"
     inkscape:window-width="1920"
     inkscape:window-height="1056"
     inkscape:window-x="0"
     inkscape:window-y="24"
     inkscape:window-maximized="1">
    <inkscape:grid
       type="xygrid"
       id="grid4154" />
  </sodipodi:namedview>
  <metadata
     id="metadata1312">
    <rdf:RDF>
      <cc:Work
         rdf:about="">
        <dc:format>image/svg+xml</dc:format>
        <dc:type
           rdf:resource="http://purl.org/dc/dcmitype/StillImage" />
        <cc:license
           rdf:resource="http://creativecommons.org/licenses/GPL/2.0/" />
        <dc:contributor>
          <cc:Agent>
            <dc:title>Oxygen team</dc:title>
          </cc:Agent>
        </dc:contributor>
        <dc:title />
      </cc:Work>
      <cc:License
         rdf:about="http://creativecommons.org/licenses/LGPL/2.1/">
        <cc:permits
           rdf:resource="http://web.resource.org/cc/Reproduction" />
        <cc:permits
           rdf:resource="http://web.resource.org/cc/Distribution" />
        <cc:requires
           rdf:resource="http://web.resource.org/cc/Notice" />
        <cc:permits
           rdf:resource="http://web.resource.org/cc/DerivativeWorks" />
        <cc:requires
           rdf:resource="http://web.resource.org/cc/ShareAlike" />
        <cc:requires
           rdf:resource="http://web.resource.org/cc/SourceCode" />
      </cc:License>
    </rdf:RDF>
  </metadata>
  <g
     id="layer1"
     inkscape:label="Layer 1"
     inkscape:groupmode="layer"
     transform="translate(0,-112)">
    <path
       style="fill:#3370d0;fill-opacity:1;fill-rule:evenodd;stroke:none;stroke-width:1px;stroke-linecap:butt;stroke-linejoin:miter;stroke-opacity:1"
       d="M 8.609375 3.2714844 C 8.1977868 3.2724344 7.7405898 3.3063937 7.2382812 3.3710938 C 6.671787 3.4440937 6.0419773 3.5550881 5.3496094 3.7050781 C 4.7306647 3.8469781 4.1438829 4.0035681 3.5878906 4.1738281 C 3.0423818 4.3400481 2.5223482 4.5256719 2.0292969 4.7324219 C 1.0431878 5.1378419 0.53342362 5.4710088 0.50195312 5.7304688 C 0.47048032 5.9980388 0.70739269 6.1490569 1.2109375 6.1855469 C 1.4731982 6.2058469 1.7871276 6.1957906 2.1542969 6.1503906 C 2.280181 6.1382906 2.937499 6.05155 2.9375 6.03125 C 2.9374978 6.00695 2.938096 6.0320525 2.4628906 5.8515625 C 2.2935261 5.7871625 2.2600281 5.7896637 2.1640625 5.7460938 C 2.1132985 5.7228937 2.048367 5.7122625 2.0195312 5.6640625 C 2.0055632 5.6406625 1.9860591 5.6145312 2.0175781 5.5820312 C 2.2577741 5.3345212 3.7584912 4.8380375 4.0898438 4.7421875 C 4.6458363 4.5800275 4.6652648 4.5816506 5.3261719 4.4316406 C 6.6374788 4.1478706 7.3445061 3.9701181 8.0683594 3.9863281 C 8.8341561 4.0106281 9.0468651 4.00727 9.046875 4.34375 C 9.023537 4.51023 8.9463215 4.5879594 8.8671875 4.6933594 C 8.4160867 5.2446994 7.25817 5.8959681 4.7089844 7.5175781 C 4.6879974 7.5378781 4.6674604 7.5561656 4.6464844 7.5722656 C 4.6359844 7.5843656 4.6308564 7.597275 4.6308594 7.609375 C 4.6308546 7.653975 5.9534617 7.9179688 6.0898438 7.9179688 C 6.2367057 7.9179688 6.3670207 7.8851125 6.4824219 7.8203125 C 6.6397738 7.7189525 6.8593283 7.5933594 7.1425781 7.4433594 C 7.4363055 7.2933594 7.5952728 7.1990813 8.0253906 6.9882812 C 8.5394177 6.7369212 9.0543161 6.5021331 9.5683594 6.2832031 C 10.082384 6.0642931 10.605599 5.8549 11.140625 5.65625 C 12.462418 5.18192 12.605525 5.1499806 13.193359 5.0253906 C 13.486287 4.9632906 13.512552 4.9589844 13.669922 4.9589844 C 13.911189 4.9589844 13.996279 4.9622575 14.033203 5.0859375 C 14.060793 5.1785375 13.974759 5.2312663 13.859375 5.3164062 C 13.859375 5.3164062 12.591963 6.1291813 11.990234 6.5820312 C 11.936076 6.6227903 11.887046 6.670661 11.833984 6.7128906 L 12.298828 7.1777344 C 12.359315 7.1277764 12.417291 7.0744191 12.478516 7.0253906 C 12.714709 6.8362406 12.957407 6.6575156 13.201172 6.4785156 C 13.569895 6.2077356 13.941619 5.9424906 14.318359 5.6816406 C 14.69694 5.4195106 15.171547 5.2500663 15.451172 4.8789062 C 15.479532 4.8413063 15.494507 4.7913006 15.498047 4.7441406 C 15.502247 4.6885406 15.494787 4.6281281 15.466797 4.5800781 C 15.411197 4.4843781 15.310752 4.4190044 15.214844 4.3652344 C 15.113572 4.3084344 14.998797 4.2778525 14.884766 4.2578125 C 14.760669 4.2359125 14.654666 4.2339938 14.507812 4.2460938 C 13.584634 4.3028937 12.273668 4.6542381 10.574219 5.2988281 C 9.944778 5.5339581 9.3663132 5.7595956 8.8417969 5.9785156 C 8.3277535 6.1974356 7.8558843 6.4122369 7.4257812 6.6230469 C 7.3313593 6.6878469 7.2472546 6.7207031 7.1738281 6.7207031 C 7.1318591 6.7207031 7.1113211 6.7125656 7.1113281 6.6972656 C 7.1113212 6.6688656 7.1492159 6.6324706 7.2226562 6.5878906 C 8.0618895 6.0446506 8.7173715 5.5858706 9.1894531 5.2128906 C 9.6720073 4.8358706 9.9859354 4.5372694 10.132812 4.3183594 C 10.185253 4.2251594 10.210917 4.1323125 10.210938 4.0390625 C 10.210928 3.8242125 10.090881 3.6512244 9.8496094 3.5214844 C 9.5873374 3.3633844 9.2252455 3.2815575 8.7636719 3.2734375 C 8.7125709 3.2725275 8.6619564 3.2714844 8.609375 3.2714844 z M 9.6816406 8.8027344 C 9.4458248 9.0628701 9.225115 9.3109043 9.0332031 9.5371094 C 8.8233834 9.7884594 8.6500395 10.00507 8.5136719 10.1875 C 8.3947438 10.36368 8.3284349 10.485094 8.3125 10.552734 C 7.7520522 10.829094 6.6377516 11.298046 5.453125 12.728516 C 7.4519831 11.809326 7.5141232 11.662762 8.5996094 11.164062 C 8.7719043 11.320302 8.7705713 11.319973 8.7714844 11.320312 C 8.9414072 11.448612 9.1521422 11.450579 9.3496094 11.449219 C 9.3980403 11.448882 9.4354259 11.432999 9.4804688 11.429688 L 9.34375 11.292969 L 9.8925781 10.744141 C 9.7677774 10.760577 9.6428626 10.78103 9.5195312 10.783203 C 9.3838669 10.783173 9.3033557 10.743522 9.2773438 10.664062 C 9.6988147 10.476823 10.103242 10.306914 10.480469 10.15625 L 10.757812 9.8789062 L 10.603516 9.7246094 C 10.153624 9.9031197 9.6956996 10.105332 9.2441406 10.328125 C 9.2499906 10.265725 9.2783881 10.187593 9.3300781 10.095703 C 9.4454646 9.9132731 9.6136744 9.6966625 9.8339844 9.4453125 C 9.9039416 9.36912 10.00142 9.2791364 10.078125 9.1992188 L 9.6816406 8.8027344 z "
       transform="translate(0,112)"
       id="path4759" />
    <path
       sodipodi:nodetypes="ccc"
       id="path1987"
       d="m -21.591741,-220.6239 0,-2.79471 0,2.79471 z"
       style="fill:#ffffff;fill-opacity:0.75688076;fill-rule:nonzero;stroke:none;stroke-width:0.5;stroke-linecap:round;stroke-linejoin:round;stroke-miterlimit:4;stroke-dasharray:none;stroke-dashoffset:4;stroke-opacity:1"
       inkscape:connector-curvature="0" />
    <path
       sodipodi:nodetypes="ccc"
       id="path1747"
       d="m 26.204559,-335.9479 0,-2.79471 0,2.79471 z"
       style="fill:#ffffff;fill-opacity:0.75688076;fill-rule:nonzero;stroke:none;stroke-width:0.5;stroke-linecap:round;stroke-linejoin:round;stroke-miterlimit:4;stroke-dasharray:none;stroke-dashoffset:4;stroke-opacity:1"
       inkscape:connector-curvature="0" />
    <rect
       style="opacity:0.57786889;fill:#ffffff;fill-opacity:1;fill-rule:nonzero;stroke:none;stroke-width:3.63199997;stroke-linecap:round;stroke-linejoin:round;stroke-miterlimit:4;stroke-dasharray:none;stroke-dashoffset:4;stroke-opacity:1"
       id="rect1327"
       width="1"
       height="0"
       x="15.057414"
       y="-308.20486" />
    <path
       style="fill:#ee545b;fill-opacity:1"
       d="m 14.292534,119.75736 -1.414214,1.41421 -1.414214,-1.41421 -0.707106,0.70711 1.414213,1.41421 L 10.757,123.29289 11.464106,124 12.87832,122.58579 14.292534,124 l 0.707106,-0.70711 -1.414213,-1.41421 1.414213,-1.41421 z"
       id="path4-7"
       inkscape:connector-curvature="0"
       sodipodi:nodetypes="ccccccccccccc" />
  </g>
</svg>

<svg xmlns="http://www.w3.org/2000/svg" viewBox="0 0 16 16">
 <g transform="translate(0,-112)">
  <path d="m 8.609 3.271 c -0.412 0.001 -0.869 0.035 -1.371 0.1 c -0.566 0.073 -1.196 0.184 -1.889 0.334 c -0.619 0.142 -1.206 0.298 -1.762 0.469 c -0.546 0.166 -1.066 0.352 -1.559 0.559 c -0.986 0.405 -1.496 0.739 -1.527 0.998 c -0.031 0.268 0.205 0.419 0.709 0.455 c 0.262 0.02 0.576 0.01 0.943 -0.035 c 0.126 -0.012 0.783 -0.099 0.783 -0.119 c 0 -0.024 0.001 0.001 -0.475 -0.18 c -0.169 -0.064 -0.203 -0.062 -0.299 -0.105 c -0.051 -0.023 -0.116 -0.034 -0.145 -0.082 c -0.014 -0.023 -0.033 -0.05 -0.002 -0.082 c 0.24 -0.248 1.741 -0.744 2.072 -0.84 c 0.556 -0.162 0.575 -0.161 1.236 -0.311 c 1.311 -0.284 2.02 -0.462 2.742 -0.445 c 0.766 0.024 0.979 0.021 0.979 0.357 c -0.023 0.166 -0.101 0.244 -0.18 0.35 c -0.451 0.551 -1.609 1.203 -4.158 2.824 c -0.021 0.02 -0.042 0.039 -0.063 0.055 c -0.011 0.012 -0.016 0.025 -0.016 0.037 c 0 0.045 1.323 0.309 1.459 0.309 c 0.147 0 0.277 -0.033 0.393 -0.098 c 0.157 -0.101 0.377 -0.227 0.66 -0.377 c 0.294 -0.15 0.453 -0.244 0.883 -0.455 c 0.514 -0.251 1.029 -0.486 1.543 -0.705 c 0.514 -0.219 1.037 -0.428 1.572 -0.627 c 1.322 -0.474 1.465 -0.506 2.053 -0.631 c 0.293 -0.062 0.319 -0.066 0.477 -0.066 c 0.241 0 0.326 0.003 0.363 0.127 c 0.028 0.093 -0.058 0.145 -0.174 0.23 c 0 0 -1.267 0.813 -1.869 1.266 c -0.054 0.041 -0.103 0.089 -0.156 0.131 l 0.465 0.465 c 0.06 -0.05 0.118 -0.103 0.18 -0.152 c 0.236 -0.189 0.479 -0.368 0.723 -0.547 c 0.369 -0.271 0.74 -0.536 1.117 -0.797 c 0.379 -0.262 0.853 -0.432 1.133 -0.803 c 0.028 -0.038 0.043 -0.088 0.047 -0.135 c 0.004 -0.056 -0.003 -0.116 -0.031 -0.164 c -0.056 -0.096 -0.156 -0.161 -0.252 -0.215 c -0.101 -0.057 -0.216 -0.087 -0.33 -0.107 c -0.124 -0.022 -0.23 -0.024 -0.377 -0.012 c -0.923 0.057 -2.234 0.408 -3.934 1.053 c -0.629 0.235 -1.208 0.461 -1.732 0.68 c -0.514 0.219 -0.986 0.434 -1.416 0.645 c -0.094 0.065 -0.179 0.098 -0.252 0.098 c -0.042 0 -0.063 -0.008 -0.063 -0.023 c 0 -0.028 0.038 -0.065 0.111 -0.109 c 0.839 -0.543 1.495 -1 1.967 -1.375 c 0.483 -0.377 0.796 -0.676 0.943 -0.895 c 0.052 -0.093 0.078 -0.186 0.078 -0.279 c 0 -0.215 -0.12 -0.388 -0.361 -0.518 c -0.262 -0.158 -0.624 -0.24 -1.086 -0.248 c -0.051 -0.001 -0.102 -0.002 -0.154 -0.002 z m 1.072 5.531 c -0.236 0.26 -0.457 0.508 -0.648 0.734 c -0.21 0.251 -0.383 0.468 -0.52 0.65 c -0.119 0.176 -0.185 0.298 -0.201 0.365 c -0.56 0.276 -1.675 0.745 -2.859 2.176 c 1.999 -0.919 2.061 -1.066 3.146 -1.564 c 0.172 0.156 0.171 0.156 0.172 0.156 c 0.17 0.128 0.381 0.13 0.578 0.129 c 0.048 0 0.086 -0.016 0.131 -0.02 l -0.137 -0.137 l 0.549 -0.549 c -0.125 0.016 -0.25 0.037 -0.373 0.039 c -0.136 0 -0.216 -0.04 -0.242 -0.119 c 0.421 -0.187 0.826 -0.357 1.203 -0.508 l 0.277 -0.277 l -0.154 -0.154 c -0.45 0.179 -0.908 0.381 -1.359 0.604 c 0.006 -0.062 0.034 -0.141 0.086 -0.232 c 0.115 -0.182 0.284 -0.399 0.504 -0.65 c 0.07 -0.076 0.167 -0.166 0.244 -0.246 l -0.396 -0.396 z" transform="translate(0,112)" style="fill:#3370d0;fill-opacity:1;stroke:none;fill-rule:evenodd"/>
  <path d="m 14.293 119.76 -1.414 1.414 -1.414 -1.414 -0.707 0.707 1.414 1.414 l -1.414 1.414 0.707 0.707 1.414 -1.414 1.414 1.414 l 0.707 -0.707 -1.414 -1.414 1.414 -1.414 z" style="fill:#ee545b;fill-opacity:1"/>
 </g>
</svg>
